icons/1_Primary/PrimeXBT.svg

<svg width="1024" height="1024" fill="none" xmlns="http://www.w3.org/2000/svg"><g clip-path="url(#a)"><path d="M512 1024c282.77 0 512-229.23 512-512S794.77 0 512 0 0 229.23 0 512s229.23 512 512 512Z" fill="#54688C"/><path d="m747.8 371.6-6.1-.1c-11.2-.1-21.8 5-28.7 13.8l-86.1 110.4-83.7-110.2c-6.8-8.9-17.3-14.2-28.5-14.2h-6.1l106.2 139.8-108 138.5 6 .1c11.2.1 21.8-5 28.7-13.8l85.2-109.2 84.8 111.6c6.8 8.9 17.3 14.1 28.5 14.1h6l-107.3-141 109.1-139.8ZM294.2 488.4c0-3.3-2.7-6-6-6h-46.5c-3.3 0-6 2.7-6 6V535c0 3.3 2.7 6 6 6h46.5c3.3 0 6-2.7 6-6v-46.6Zm198.2 52.5H300.2c-3.3 0-6 2.7-6 6V646c0 3.3 2.7 6 6 6H354c3.3 0 6-2.7 6-6v-43.6c0-3.3 2.7-6 6-6h41.2c48.6 0 78.2-31.5 89.8-47.1 2.6-3.6-.1-8.4-4.6-8.4Zm-192.2-58.5H354c3.3 0 6-2.7 6-6v-44.1c0-3.3 2.7-6 6-6h45.9c32.4 0 40.1 35.1 41.9 49.2.4 3.2 3.1 5.7 6.3 5.7h53.7c3.1.1 5.7-2.4 5.8-5.6v-.6c-4.4-45.8-38.4-103.7-90.9-103.7H300.2c-3.3 0-6 2.7-6 6v99.1c0 3.3 2.7 6 6 6Z" fill="#fff"/></g><defs><clipPath id="a"><path fill="#fff" d="M0 0h1024v1024H0z"/></clipPath></defs></svg>

<svg width="1024" height="1024" viewBox="0 0 1024 1024" fill="none" xmlns="http://www.w3.org/2000/svg">
<g clip-path="url(#clip0_2_3204)">
<path d="M512 1024C794.77 1024 1024 794.77 1024 512C1024 229.23 794.77 0 512 0C229.23 0 0 229.23 0 512C0 794.77 229.23 1024 512 1024Z" fill="#54688C"/>
<path d="M747.8 371.6L741.7 371.5C730.5 371.4 719.9 376.5 713 385.3L626.9 495.7L543.2 385.5C536.4 376.6 525.9 371.3 514.7 371.3H508.6L614.8 511.1L506.8 649.6L512.8 649.7C524 649.8 534.6 644.7 541.5 635.9L626.7 526.7L711.5 638.3C718.3 647.2 728.8 652.4 740 652.4H746L638.7 511.4L747.8 371.6ZM294.2 488.4C294.2 485.1 291.5 482.4 288.2 482.4H241.7C238.4 482.4 235.7 485.1 235.7 488.4V535C235.7 538.3 238.4 541 241.7 541H288.2C291.5 541 294.2 538.3 294.2 535V488.4ZM492.4 540.9H300.2C296.9 540.9 294.2 543.6 294.2 546.9V646C294.2 649.3 296.9 652 300.2 652H354C357.3 652 360 649.3 360 646V602.4C360 599.1 362.7 596.4 366 596.4H407.2C455.8 596.4 485.4 564.9 497 549.3C499.6 545.7 496.9 540.9 492.4 540.9ZM300.2 482.4H354C357.3 482.4 360 479.7 360 476.4V432.3C360 429 362.7 426.3 366 426.3H411.9C444.3 426.3 452 461.4 453.8 475.5C454.2 478.7 456.9 481.2 460.1 481.2H513.8C516.9 481.3 519.5 478.8 519.6 475.6V475C515.2 429.2 481.2 371.3 428.7 371.3H300.2C296.9 371.3 294.2 374 294.2 377.3V476.4C294.2 479.7 296.9 482.4 300.2 482.4Z" fill="white"/>
</g>
<defs>
<clipPath id="clip0_2_3204">
<rect width="1024" height="1024" fill="white"/>
</clipPath>
</defs>
</svg>
